public/assets/items/matches.svg

<svg width="240" height="240" viewBox="0 0 240 240" fill="none" xmlns="http://www.w3.org/2000/svg">
<g filter="url(#filter0_f)">
<path d="M95.0742 154.738L180.969 123.475C183.192 122.666 185.65 123.812 186.46 126.036V126.036C187.269 128.259 186.123 130.717 183.899 131.526L98.0045 162.789L95.0742 154.738Z" stroke="white" stroke-width="3"/>
<path d="M75.6316 166.373C73.8087 161.364 76.7483 155.884 81.9291 154.633L93.9406 151.731L99.0687 165.82L88.0021 171.318C83.2289 173.69 77.4545 171.381 75.6316 166.373V166.373Z" stroke="#FF483D" stroke-width="3"/>
<path d="M83.6813 143.297L82.8177 142.071C82.283 142.447 82.0539 143.127 82.2514 143.75C82.4488 144.374 83.0274 144.797 83.6813 144.797V143.297ZM69.518 143.218L69.1555 144.673C69.8532 144.847 70.5761 144.501 70.8787 143.849C71.1812 143.197 70.9785 142.422 70.3952 142.001L69.518 143.218ZM63.2899 94.4295L64.3505 95.4902C64.9024 94.9383 64.9389 94.0555 64.4344 93.46C63.9299 92.8644 63.0531 92.7553 62.418 93.2089L63.2899 94.4295ZM61.6238 106.646L60.2619 107.275C60.4416 107.664 60.7795 107.958 61.1901 108.082C61.6007 108.206 62.0447 108.149 62.41 107.924L61.6238 106.646ZM77.1728 60L78.6676 59.8754C78.6015 59.0825 77.9278 58.4792 77.1325 58.5005C76.3371 58.5219 75.6968 59.1606 75.6734 59.9559L77.1728 60ZM87.3559 81.5085L88.5948 80.6629L87.3559 81.5085ZM99.3853 102.204L100.764 101.613L99.3853 102.204ZM84.3918 143.297V144.797C84.5262 144.797 84.66 144.779 84.7896 144.744L84.3918 143.297ZM87.3722 133.302C87.3722 136.925 85.5755 140.129 82.8177 142.071L84.545 144.524C88.0665 142.044 90.3722 137.942 90.3722 133.302H87.3722ZM76.6553 122.585C82.5741 122.585 87.3722 127.383 87.3722 133.302H90.3722C90.3722 125.726 84.2309 119.585 76.6553 119.585V122.585ZM65.9384 133.302C65.9384 127.383 70.7365 122.585 76.6553 122.585V119.585C69.0797 119.585 62.9384 125.726 62.9384 133.302H65.9384ZM70.3952 142.001C67.6927 140.053 65.9384 136.882 65.9384 133.302H62.9384C62.9384 137.887 65.1897 141.946 68.6407 144.435L70.3952 142.001ZM69.8804 141.762C62.1958 139.849 57.4584 136.496 54.7315 132.568C51.9993 128.631 51.1604 123.936 51.6178 119.11C52.0761 114.275 53.833 109.379 56.1968 105.177C58.5678 100.963 61.4845 97.5625 64.1618 95.6501L62.418 93.2089C59.2842 95.4474 56.1002 99.231 53.5822 103.706C51.0571 108.194 49.1368 113.492 48.6312 118.827C48.1247 124.171 49.035 129.622 52.2669 134.278C55.504 138.942 60.9452 142.629 69.1555 144.673L69.8804 141.762ZM62.2292 93.3689C60.2514 95.3467 57.2623 100.776 60.2619 107.275L62.9858 106.018C60.6543 100.966 62.9964 96.8443 64.3505 95.4902L62.2292 93.3689ZM62.41 107.924C65.6152 105.951 68.1651 102.676 70.2 98.8309C72.2426 94.9712 73.8263 90.4233 75.0424 85.7561C77.4742 76.4234 78.4845 66.4229 78.6721 60.0441L75.6734 59.9559C75.4908 66.1642 74.5019 75.933 72.1394 84.9997C70.9584 89.5322 69.4462 93.8416 67.5484 97.4277C65.6429 101.028 63.4077 103.787 60.8377 105.369L62.41 107.924ZM75.6779 60.1246C76.3426 68.1007 81.0089 74.8709 86.117 82.3542L88.5948 80.6629C83.3681 73.0059 79.254 66.9128 78.6676 59.8754L75.6779 60.1246ZM86.117 82.3542C90.1277 88.2299 94.5228 94.6746 98.0068 102.795L100.764 101.613C97.1508 93.1912 92.5977 86.527 88.5948 80.6629L86.117 82.3542ZM98.0068 102.795C100.667 108.996 102.38 117.42 100.805 124.942C99.257 132.336 94.5288 138.954 83.9941 141.851L84.7896 144.744C96.4674 141.532 101.976 133.99 103.741 125.557C105.48 117.253 103.583 108.184 100.764 101.613L98.0068 102.795ZM84.3918 141.797H83.6813V144.797H84.3918V141.797Z" fill="#FFEDBD"/>
</g>
<path d="M95.0742 154.738L180.969 123.475C183.192 122.666 185.65 123.812 186.46 126.036V126.036C187.269 128.259 186.123 130.717 183.899 131.526L98.0045 162.789L95.0742 154.738Z" stroke="white" stroke-width="3"/>
<path d="M75.6316 166.373C73.8087 161.364 76.7483 155.884 81.9291 154.633L93.9406 151.731L99.0687 165.82L88.0021 171.318C83.2289 173.69 77.4545 171.381 75.6316 166.373V166.373Z" stroke="#FF483D" stroke-width="3"/>
<path d="M83.6813 143.297L82.8177 142.071C82.283 142.447 82.0539 143.127 82.2514 143.75C82.4488 144.374 83.0274 144.797 83.6813 144.797V143.297ZM69.518 143.218L69.1555 144.673C69.8532 144.847 70.5761 144.501 70.8787 143.849C71.1812 143.197 70.9785 142.422 70.3952 142.001L69.518 143.218ZM63.2899 94.4295L64.3505 95.4902C64.9024 94.9383 64.9389 94.0555 64.4344 93.46C63.9299 92.8644 63.0531 92.7553 62.418 93.2089L63.2899 94.4295ZM61.6238 106.646L60.2619 107.275C60.4416 107.664 60.7795 107.958 61.1901 108.082C61.6007 108.206 62.0447 108.149 62.41 107.924L61.6238 106.646ZM77.1728 60L78.6676 59.8754C78.6015 59.0825 77.9278 58.4792 77.1325 58.5005C76.3371 58.5219 75.6968 59.1606 75.6734 59.9559L77.1728 60ZM87.3559 81.5085L88.5948 80.6629L88.5948 80.6629L87.3559 81.5085ZM99.3853 102.204L100.764 101.613L100.764 101.613L99.3853 102.204ZM84.3918 143.297V144.797C84.5262 144.797 84.66 144.779 84.7896 144.744L84.3918 143.297ZM87.3722 133.302C87.3722 136.925 85.5755 140.129 82.8177 142.071L84.545 144.524C88.0665 142.044 90.3722 137.942 90.3722 133.302H87.3722ZM76.6553 122.585C82.5741 122.585 87.3722 127.383 87.3722 133.302H90.3722C90.3722 125.726 84.231 119.585 76.6553 119.585V122.585ZM65.9384 133.302C65.9384 127.383 70.7365 122.585 76.6553 122.585V119.585C69.0797 119.585 62.9384 125.726 62.9384 133.302H65.9384ZM70.3952 142.001C67.6927 140.053 65.9384 136.882 65.9384 133.302H62.9384C62.9384 137.887 65.1897 141.946 68.6407 144.435L70.3952 142.001ZM69.8804 141.762C62.1958 139.849 57.4584 136.496 54.7315 132.568C51.9993 128.631 51.1604 123.936 51.6178 119.11C52.0761 114.275 53.833 109.379 56.1968 105.177C58.5678 100.963 61.4845 97.5625 64.1618 95.6501L62.418 93.2089C59.2842 95.4474 56.1002 99.231 53.5822 103.706C51.0571 108.194 49.1368 113.492 48.6312 118.827C48.1247 124.171 49.035 129.622 52.2669 134.278C55.504 138.942 60.9452 142.629 69.1555 144.673L69.8804 141.762ZM62.2292 93.3689C60.2514 95.3467 57.2623 100.776 60.2619 107.275L62.9858 106.018C60.6543 100.966 62.9964 96.8443 64.3505 95.4902L62.2292 93.3689ZM62.41 107.924C65.6152 105.951 68.1651 102.676 70.2 98.8309C72.2426 94.9712 73.8263 90.4233 75.0425 85.7561C77.4742 76.4234 78.4845 66.4229 78.6721 60.0441L75.6734 59.9559C75.4908 66.1642 74.5019 75.933 72.1394 84.9997C70.9584 89.5322 69.4462 93.8416 67.5484 97.4277C65.6429 101.028 63.4077 103.787 60.8377 105.369L62.41 107.924ZM75.6779 60.1246C76.3426 68.1007 81.0089 74.8709 86.117 82.3542L88.5948 80.6629C83.3681 73.0059 79.254 66.9128 78.6676 59.8754L75.6779 60.1246ZM86.117 82.3542C90.1277 88.2299 94.5228 94.6746 98.0068 102.795L100.764 101.613C97.1508 93.1912 92.5977 86.527 88.5948 80.6629L86.117 82.3542ZM98.0068 102.795C100.667 108.996 102.38 117.42 100.805 124.942C99.257 132.336 94.5288 138.954 83.9941 141.851L84.7896 144.744C96.4674 141.532 101.976 133.99 103.741 125.557C105.48 117.253 103.583 108.184 100.764 101.613L98.0068 102.795ZM84.3918 141.797H83.6813V144.797H84.3918V141.797Z" fill="#FFEDBD"/>
<defs>
<filter id="filter0_f" x="33.5" y="43.5" width="171.347" height="148.192" filterUnits="userSpaceOnUse" color-interpolation-filters="sRGB">
<feFlood flood-opacity="0" result="BackgroundImageFix"/>
<feBlend mode="normal" in="SourceGraphic" in2="BackgroundImageFix" result="shape"/>
<feGaussianBlur stdDeviation="7.5" result="effect1_foregroundBlur"/>
</filter>
</defs>
</svg>

<svg width="240" height="240" fill="none" xmlns="http://www.w3.org/2000/svg"><g filter="url(#filter0_f)"><path d="M95.074 154.738l85.895-31.263a4.284 4.284 0 0 1 5.491 2.561v0a4.283 4.283 0 0 1-2.561 5.49l-85.895 31.263-2.93-8.051z" stroke="#fff" stroke-width="3"/><path d="M75.632 166.373c-1.823-5.009 1.116-10.489 6.297-11.74l12.012-2.902 5.128 14.089-11.067 5.498c-4.773 2.372-10.547.063-12.37-4.945v0z" stroke="#FF483D" stroke-width="3"/><path d="M83.681 143.297l-.863-1.226a1.5 1.5 0 0 0 .863 2.726v-1.5zm-14.163-.079l-.362 1.455a1.5 1.5 0 0 0 1.24-2.672l-.878 1.217zM63.29 94.43l1.06 1.06a1.5 1.5 0 0 0-1.932-2.281l.872 1.22zm-1.666 12.216l-1.362.629a1.5 1.5 0 0 0 2.148.649l-.786-1.278zM77.173 60l1.495-.125a1.5 1.5 0 0 0-2.995.08l1.5.045zm10.183 21.508l1.239-.845-1.24.846zm12.03 20.696l1.378-.591-1.379.591zm-14.994 41.093v1.5c.134 0 .268-.018.398-.053l-.398-1.447zm2.98-9.995c0 3.623-1.796 6.827-4.554 8.769l1.727 2.453a13.703 13.703 0 0 0 5.827-11.222h-3zm-10.717-10.717c5.92 0 10.717 4.798 10.717 10.717h3c0-7.576-6.141-13.717-13.717-13.717v3zm-10.717 10.717c0-5.919 4.799-10.717 10.717-10.717v-3c-7.575 0-13.717 6.141-13.717 13.717h3zm4.457 8.699a10.7 10.7 0 0 1-4.457-8.699h-3c0 4.585 2.252 8.644 5.703 11.133l1.754-2.434zm-.515-.239c-7.684-1.913-12.422-5.266-15.148-9.194-2.733-3.937-3.572-8.632-3.114-13.458.458-4.835 2.215-9.731 4.579-13.933 2.37-4.214 5.287-7.615 7.965-9.527l-1.744-2.441c-3.134 2.238-6.318 6.022-8.836 10.497-2.525 4.488-4.445 9.786-4.95 15.121-.507 5.344.403 10.795 3.635 15.451 3.237 4.664 8.678 8.351 16.889 10.395l.724-2.911zm-7.65-48.393c-1.979 1.978-4.968 7.407-1.968 13.906l2.724-1.257c-2.332-5.052.01-9.174 1.364-10.528l-2.12-2.121zm.18 14.555c3.205-1.973 5.755-5.248 7.79-9.093 2.043-3.86 3.626-8.408 4.842-13.075 2.432-9.333 3.442-19.333 3.63-25.712l-2.999-.088C75.491 66.164 74.502 75.933 72.14 85c-1.18 4.532-2.693 8.842-4.59 12.428-1.906 3.6-4.141 6.359-6.711 7.941l1.572 2.555zm13.268-47.8c.665 7.977 5.33 14.747 10.439 22.23l2.478-1.691c-5.227-7.657-9.341-13.75-9.927-20.788l-2.99.25zm10.439 22.23c4.01 5.876 8.406 12.32 11.89 20.441l2.757-1.182c-3.613-8.422-8.166-15.086-12.17-20.95l-2.477 1.691zm11.89 20.441c2.66 6.201 4.373 14.625 2.798 22.147-1.548 7.394-6.276 14.012-16.81 16.909l.795 2.893c11.677-3.212 17.186-10.754 18.951-19.187 1.739-8.304-.158-17.373-2.977-23.944l-2.757 1.182zm-13.615 39.002h-.71v3h.71v-3z" fill="#FFEDBD"/></g><path d="M95.074 154.738l85.895-31.263a4.284 4.284 0 0 1 5.491 2.561v0a4.283 4.283 0 0 1-2.561 5.49l-85.895 31.263-2.93-8.051z" stroke="#fff" stroke-width="3"/><path d="M75.632 166.373c-1.823-5.009 1.116-10.489 6.297-11.74l12.012-2.902 5.128 14.089-11.067 5.498c-4.773 2.372-10.547.063-12.37-4.945v0z" stroke="#FF483D" stroke-width="3"/><path d="M83.681 143.297l-.863-1.226a1.5 1.5 0 0 0 .863 2.726v-1.5zm-14.163-.079l-.362 1.455a1.5 1.5 0 0 0 1.24-2.672l-.878 1.217zM63.29 94.43l1.06 1.06a1.5 1.5 0 0 0-1.932-2.281l.872 1.22zm-1.666 12.216l-1.362.629a1.5 1.5 0 0 0 2.148.649l-.786-1.278zM77.173 60l1.495-.125a1.5 1.5 0 0 0-2.995.08l1.5.045zm10.183 21.508l1.239-.845-1.24.846zm12.03 20.696l1.378-.591-1.379.591zm-14.994 41.093v1.5c.134 0 .268-.018.398-.053l-.398-1.447zm2.98-9.995c0 3.623-1.796 6.827-4.554 8.769l1.727 2.453a13.703 13.703 0 0 0 5.827-11.222h-3zm-10.717-10.717c5.92 0 10.717 4.798 10.717 10.717h3c0-7.576-6.141-13.717-13.717-13.717v3zm-10.717 10.717c0-5.919 4.799-10.717 10.717-10.717v-3c-7.575 0-13.717 6.141-13.717 13.717h3zm4.457 8.699a10.7 10.7 0 0 1-4.457-8.699h-3c0 4.585 2.252 8.644 5.703 11.133l1.754-2.434zm-.515-.239c-7.684-1.913-12.422-5.266-15.148-9.194-2.733-3.937-3.572-8.632-3.114-13.458.458-4.835 2.215-9.731 4.579-13.933 2.37-4.214 5.287-7.615 7.965-9.527l-1.744-2.441c-3.134 2.238-6.318 6.022-8.836 10.497-2.525 4.488-4.445 9.786-4.95 15.121-.507 5.344.403 10.795 3.635 15.451 3.237 4.664 8.678 8.351 16.889 10.395l.724-2.911zm-7.65-48.393c-1.979 1.978-4.968 7.407-1.968 13.906l2.724-1.257c-2.332-5.052.01-9.174 1.364-10.528l-2.12-2.121zm.18 14.555c3.205-1.973 5.755-5.248 7.79-9.093 2.043-3.86 3.626-8.408 4.842-13.075 2.432-9.333 3.442-19.333 3.63-25.712l-2.999-.088C75.491 66.164 74.502 75.933 72.14 85c-1.18 4.532-2.693 8.842-4.59 12.428-1.906 3.6-4.141 6.359-6.711 7.941l1.572 2.555zm13.268-47.8c.665 7.977 5.33 14.747 10.439 22.23l2.478-1.691c-5.227-7.657-9.341-13.75-9.927-20.788l-2.99.25zm10.439 22.23c4.01 5.876 8.406 12.32 11.89 20.441l2.757-1.182c-3.613-8.422-8.166-15.086-12.17-20.95l-2.477 1.691zm11.89 20.441c2.66 6.201 4.373 14.625 2.798 22.147-1.548 7.394-6.276 14.012-16.81 16.909l.795 2.893c11.677-3.212 17.186-10.754 18.951-19.187 1.739-8.304-.158-17.373-2.977-23.944l-2.757 1.182zm-13.615 39.002h-.71v3h.71v-3z" fill="#FFEDBD"/><defs><filter id="filter0_f" x="33.5" y="43.5" width="169.719" height="145.255" filterUnits="userSpaceOnUse" color-interpolation-filters="sRGB"><feFlood flood-opacity="0" result="BackgroundImageFix"/><feBlend in="SourceGraphic" in2="BackgroundImageFix" result="shape"/><feGaussianBlur stdDeviation="7.5" result="effect1_foregroundBlur"/></filter></defs></svg>
